X: 1
T: New Leaf, The
M: 6/8
L: 1/8
R: jig
K: Amaj
|: efe efe | aec d2B | cAA EAc | BAG dcB | 
efe efe | aec d2B | cAA EAc |1 BAG A2e :|2 BAG AGF |]
|: EAE ABc | B2A Bcd | e2e aec | dBG AGF | 
EAE ABc | B2A Bcd | e2e aec |1 dBG A3 :|2 dBG A2e |]
